X:1
T:Title
%%score { ( 1 3 ) | ( 2 4 ) }
L:1/8
M:6/4
K:Ab
V:1 treble nm="Grand Piano"
V:3 treble 
V:2 bass 
V:4 bass 
V:1
 z6 z4[Q:1/4=132] [CE]2 | [Ec]2 [Ec]2 [Ec]2 [CEA]4 [CEA]2 | [FB]2 [FA]2 [DF]2 [CE]4 [CE]2 | %3
 [Ec]2 [Ec]2 [Ec]2 [CEA]4 A2 | F2 G2 A2 B4 [CE]2 | [Ec]2 [Ec]2 [Ec]2 [CEA]4 [CEA]2 | %6
 [CEA]2 [Fc]2 [_Ge]2 [Fd]4 F2 | A2 G2 F2 E2 A2 c2 |[M:5/4] B6 [CA]4 |[M:1/4] E2 |[M:6/4] .c12 | %11
 [Gd]12 | .d12 | [ce]12 | f2- [df-]2 [Bf-]2 [Af]2 [Fd]2 [Bf]2 | [Ae]6 [Ac]6 | .=d12 | e12 | .c12 | %19
 [Gd]12 | .d12 | [ce]12 | .f12 | .[Ee]12 | .[Fd]12 |[M:5/4] A2- A2- A6 |] %26
V:2
 z6 z4 [A,,A,]2 | [A,,A,]2 [A,,A,]2 [A,,A,]2 A,,4 A,,2 | [D,D]2 [D,D]2 [D,A,]2 [A,,A,]4 [A,,A,]2 | %3
 [A,,A,]2 [A,,A,]2 [A,,A,]2 A,,4 [A,CE]2 | [A,B,=D]2 [G,B,E]2 [F,B,D]2 [E,G,_D]4 [A,,A,]2 | %5
 [A,,A,]2 [A,,A,]2 [A,,A,]2 A,,4 A,,2 | A,,2 [A,,A,]2 [A,,A,]2 [D,A,]4 [D,A,D]2 | %7
 [=D,F,_C]2 [D,G,C]2 [D,A,C]2 [E,A,=C]2 [E,A,C]2 [E,A,E]2 |[M:5/4] [E,G,D]6 [A,,A,]4 | %9
[M:1/4] [A,C]2 |[M:6/4] [A,,A,]6- [A,,A,]2 [A,,A,]2 [A,,A,]2 | [E,B,]2 E,2 E,2 E,4 [G,B,]2 | %12
 .E6 z6 | [A,E]2 A,2 A,2 A,4 [A,CA]2 | [D,D]6- [D,D]2 [D,A,]2 [D,A,]2 | [A,C]2 A,2 A,2 A,4 A,2 | %16
 [F,B,]6- [F,B,]2 [F,B,]2 [F,B,]2 | E,4- [E,-C]2 [E,D]3- [E,D-]/D/ [A,C]2 | %18
 [A,,A,]6- [A,,A,]2 [A,,A,]2 [A,,A,]2 | [E,B,]2 E,2 E,2 E,4 [G,B,]2 | .E6 z6 | %21
 [A,E]2 A,2 A,2 A,4 [A,CA]2 | .A6 z6 | [A,C]2 A,2 A,2 A,2 A,2 F,2 | %24
 z2[K:treble] G2 G2 G2 E2[K:bass] E,2 |[M:5/4] z2 C2 D2 C4 |] %26
V:3
 x12 | x12 | x12 | x12 | x12 | x12 | x12 | x12 |[M:5/4] x10 |[M:1/4] x2 | %10
[M:6/4] E2 F2 G2 A2 [GB]2 [Ac]2 | z2 B,2 B,2 B,4 E2 | z2 G2 A2 B2 [Ac]2 [Bd]2 | z2 E2 E2 E4 e2 | %14
 .A6 z6 | z2 C2 C2 E4 E2 | A2 A2 A2 A2 [Ac]2 [B=d]2 | G4 A2 B4 E2 | E2 F2 G2 A2 [GB]2 [Ac]2 | %19
 z2 B,2 B,2 B,4 E2 | z2 G2 A2 B2 [Ac]2 [Bd]2 | z2 E2 E2 E4 e2 | z2 d2 B2 A2 [Fd]2 [FB]2 | %23
 z2 C2 C2 C2 [Ec]2 [=DFA]2 | .G6 z2 [Gc]2 [DGB]2 |[M:5/4] C2 E2 F2 E4 |] %26
V:4
 x12 | x12 | x12 | x12 | x12 | x12 | x12 | x12 |[M:5/4] x10 |[M:1/4] x2 |[M:6/4] x12 | x12 | %12
 [E,B,]6- [E,B,]2 [E,E]2 [E,E]2 | x12 | x12 | x12 | x12 | .B,6 z6 | x12 | x12 | %20
 [E,B,]6- [E,B,]2 [E,E]2 [E,E]2 | x12 | [B,,D]6- [B,,D]2 [D,A,]2 [D,D]2 | x12 | %24
 E,12[K:treble][K:bass] |[M:5/4] A,,2- A,,2- A,,6 |] %26

